build/system/ArrowUpDownOutline.svg

<svg xmlns="http://www.w3.org/2000/svg" fill="none" viewBox="0 0 24 24" focusable="false"><path d="M0 0H24V24H0z"/><path fill="#74767B" fill-rule="evenodd" d="M16.0013 9.17945C16.1413 9.04945 16.2113 8.87946 16.2113 8.69946C16.2113 8.53946 16.1613 8.38945 16.0413 8.25945L12.455 4.27632C12.175 3.96632 11.695 3.96632 11.415 4.27632L7.95723 8.25556C7.71723 8.52556 7.73723 8.93556 7.99723 9.17556C8.26723 9.41556 8.67723 9.40556 8.91723 9.13556L11.935 5.64632L15.0813 9.13945C15.3213 9.39945 15.7313 9.41945 16.0013 9.17945ZM7.78857 15.3542C7.78857 15.1742 7.85857 15.0042 7.99857 14.8742C8.26857 14.6342 8.67857 14.6542 8.91857 14.9142L12.0648 18.4073L15.0826 14.9181C15.3226 14.6481 15.7326 14.6381 16.0026 14.8781C16.2626 15.1181 16.2826 15.5281 16.0426 15.7981L12.5848 19.7773C12.3048 20.0873 11.8248 20.0873 11.5448 19.7773L7.95857 15.7942C7.83857 15.6642 7.78857 15.5142 7.78857 15.3542Z"/></svg>

<svg xmlns="http://www.w3.org/2000/svg" fill="none" viewBox="0 0 24 24" focusable="false"><path fill="#74767B" fill-rule="evenodd" d="M16.21 8.69c0 .18-.07.35-.21.48-.27.24-.68.22-.92-.04l-3.15-3.49-3.02 3.49a.65.65 0 0 1-.92.04.66.66 0 0 1-.04-.92l3.46-3.98c.28-.31.76-.31 1.04 0l3.59 3.98c.12.13.17.28.17.44m-8.43 6.66c0-.18.07-.35.21-.48.27-.24.68-.22.92.04l3.15 3.49 3.02-3.49a.65.65 0 0 1 .92-.04c.26.24.28.65.04.92l-3.46 3.98c-.28.31-.76.31-1.04 0l-3.59-3.98a.63.63 0 0 1-.17-.44"/></svg>
